F[ERK3
CUT[BIN AUS UND EIN GANGN]
REG[Europa, Mitteleuropa, Oesterreich, Tirol]
KEY[E1041  16  F 3/4]
MEL[-5__  1__1_2_3_4_  5__3__
    3_5_  5_4_2__2_4_  3___
    -5_-5_  1__1_2_3_4_  6_5_3__
    3_5_  5_4_2__2_3_  1___
    5_3_  2__2_5_4#_6_  5_2_2__
    2_5_  7__7_5_6_4#_  5___
    3_5_  6__4_1_4_6_  6_5_3__
    3_5_  5_4_2__2_4_  3___
    5__  6__6_4_+1_6_  6_5_5__
    3_5_  5_.43__2_1_  1___ //] >>
FCT[Tanz - Lied]
